X: 1
T: String Quartet in E\b Major opus 76 no 6 mvt 3
C: Franz Joseph Haydn
%%abc-version 2.0
%%abcx-abcm2ps-target-version 5.9.1 (29 Sep 2008)
%%abc-creator hum2abc beta
%%abcx-conversion-date 2021/02/14 14:38:19
%%abc-copyright Copyright (c) 1994, 2000 Center for Computer Assisted Research in the Humanities
%%abc-edited-by Frances Bennion
%%abcx-initial-encoding-date 1997/04/15
%%gracespace 0 6 6
%%humdrum-veritas 3600771582
%%humdrum-veritas-data 3259313146
%%linebreak <none>
%%barnumbers 0
L: 1/4
M: 3/4
N: Derived from op76n6-03.krn
Q: "Menuetto: Presto"
%%staves [1 2 3 4]
V: 1
V: 2
V: 3 clef=alto
V: 4 clef=bass
K: Eb
[V:1]z2 e [I:setbarnb1] |
[V:2]z2 z |
[V:3]z2 z |
[V:4]z2 z |
[V:1]d/e/ f/e/ g |
[V:2]z3 |
[V:3]z3 |
[V:4]z3 |
[V:1]e z b |
[V:2]z B z |
[V:3]z G z |
[V:4]z E z |
[V:1]e z e' |
[V:2]z G z |
[V:3]z B, z |
[V:4]z E, z |
[V:1]e z g' |
[V:2]z B, z |
[V:3]z G, z |
[V:4]z E,, z |
[V:1]e2 d |
[V:2]z B A |
[V:3]z G F |
[V:4]z3 |
[V:1]c2 B |
[V:2]z G F |
[V:3]z E D |
[V:4]z3 |
[V:1]=A/B/ A/B/ c/A/ |
[V:2]E E E |
[V:3]C C C |
[V:4]F, F, F, |
[V:1]B z f |
[V:2]D z2 |
[V:3]D z2 |
[V:4]B, B,, z |
[V:1]=e/f/ g/f/ a |
[V:2]z3 |
[V:3]z3 |
[V:4]z3 |
[V:1]f z c' |
[V:2]z c z |
[V:3]z A z |
[V:4]z F z |
[V:1]f z f' |
[V:2]z A z |
[V:3]z C z |
[V:4]z F, z |
[V:1]f z a' |
[V:2]z C z |
[V:3]z A, z |
[V:4]z F,, z |
[V:1]D/E/ F/G/ A/B/ |
[V:2][A,D] [A,D] [A,D] |
[V:3]F, F, F, |
[V:4]B,, B,, B,, |
[V:1]G/A/ B/c/ d/e/ |
[V:2][EG,] [G,E] [G,E] |
[V:3]G, G, G, |
[V:4]E, E, E, |
[V:1]d/e/ f/g/ a/b/ |
[V:2][A,F] [FA,] [A,F] |
[V:3]D D D |
[V:4]B,, B,, B,, |
[V:1]g z g |
[V:2][G,E] z e |
[V:3]E z C |
[V:4]E,, z2 |
[V:1]a z d |
[V:2]f z =B |
[V:3]=B,/C/ D/E/ F/G/ |
[V:4]z3 |
[V:1]e z g |
[V:2]c z d |
[V:3]E C B, |
[V:4]z3 |
[V:1]f z c |
[V:2]c z =A |
[V:3]=A,/B,/ C/D/ E/F/ |
[V:4]z3 |
[V:1]d z d |
[V:2]B z f |
[V:3]D B, z |
[V:4]z z B,, |
[V:1]e e e |
[V:2]f f f |
[V:3]z3 |
[V:4]=A,,/B,,/ A,,/B,,/ C,/A,,/ |
[V:1]d z f |
[V:2]f z d |
[V:3]z z B, |
[V:4]B,, B, z |
[V:1]f f f |
[V:2]e e e |
[V:3]=A,/B,/ A,/B,/ C/A,/ |
[V:4]z3 |
[V:1]f z b |
[V:2]d z f |
[V:3]B, D d |
[V:4]z3 |
[V:1]=a/b/ c'/b/ a/g/ |
[V:2]e2 d |
[V:3]c2 B |
[V:4]z3 |
[V:1]^f/g/ =a/g/ =f/e/ |
[V:2]c2 B |
[V:3]=A2 G |
[V:4]z3 |
[V:1]d/e/ f/e/ d/c/ |
[V:2]A3- |
[V:3]F3- |
[V:4]z3 |
[V:1]=B/c/ d/e/ f/g/ |
[V:2]A G E |
[V:3]F E C |
[V:4]z3 |
[V:1]B2 =A |
[V:2]D2 C |
[V:3]F,3 |
[V:4]z z F, |
[V:1]B d z |
[V:2]B, B z |
[V:3]B, F z |
[V:4]B,, z B, |
[V:1]z f z |
[V:2]z d z |
[V:3]z B z |
[V:4]B,, z B, |
[V:1]z a z |
[V:2]z f z |
[V:3]z D z |
[V:4]B,, z D |
[V:1]z d' z |
[V:2]z a z |
[V:3]z F z |
[V:4]B,, z F |
[V:1]z f' z |
[V:2]z a z |
[V:3]z D z |
[V:4]B,, z A |
[V:1]z3 |
[V:2]z3 |
[V:3]z D B, |
[V:4]B,, z2 |
[V:1]z z A |
[V:2]F D z |
[V:3]z3 |
[V:4]z3 |
[V:1]F z2 |
[V:2]z3 |
[V:3]z G E |
[V:4]z3 |
[V:1]z z e |
[V:2]B G z |
[V:3]z3 |
[V:4]z3 |
[V:1]d/e/ f/e/ g |
[V:2]z3 |
[V:3]z3 |
[V:4]z3 |
[V:1]e z b |
[V:2]z B z |
[V:3]z G z |
[V:4]z E z |
[V:1]e z e' |
[V:2]z G z |
[V:3]z B, z |
[V:4]z E, z |
[V:1]e z g' |
[V:2]z B, z |
[V:3]z G, z |
[V:4]z E,, z |
[V:1]e2 d |
[V:2]z B A |
[V:3]z G F |
[V:4]z3 |
[V:1]c2 B |
[V:2]z G F |
[V:3]z E D |
[V:4]z3 |
[V:1]=A/B/ A/B/ c/A/ |
[V:2]E E E |
[V:3]C C C |
[V:4]F, F, F, |
[V:1]B z _d |
[V:2]D z2 |
[V:3]D z2 |
[V:4]B,, B, z |
[V:1]c/_d/ e/d/ f |
[V:2]z3 |
[V:3]z3 |
[V:4]z3 |
[V:1]G z _d |
[V:2]z _D z |
[V:3]z [B,G] z |
[V:4]z E, z |
[V:1]b z _d |
[V:2]z _D z |
[V:3]z [GB,] z |
[V:4]z E, z |
[V:1]f' z _d'/c'/ |
[V:2]z _D z |
[V:3]z [GB,] z |
[V:4]z E, z |
[V:1]b/a/ g/f/ e/_d/ |
[V:2]_d d B |
[V:3]E E E |
[V:4]G,, G,, G,, |
[V:1]c/B/ A/G/ F/E/ |
[V:2]c z2 |
[V:3]E z2 |
[V:4]A,, z2 |
[V:1]D/E/ F/G/ A/B/ |
[V:2][A,D] [A,D] [A,D] |
[V:3]F, F, F, |
[V:4]B,, B,, B,, |
[V:1]G/A/ B/c/ d/e/ |
[V:2][G,E] [EG,] [G,E] |
[V:3]G, G, G, |
[V:4]E, E, E, |
[V:1]d/e/ f/g/ a/b/ |
[V:2][A,F] [A,F] [A,F] |
[V:3]D D D |
[V:4]B,, B,, B,, |
[V:1]g z2 |
[V:2]g/f/ e/d/ c/B/ |
[V:3]e/d/ c/B/ A/G/ |
[V:4]E,, z2 |
[V:1]d/e/ f/g/ a/b/ |
[V:2]A2 z |
[V:3]F2 z |
[V:4]B,,/C,/ D,/E,/ F,/D,/ |
[V:1]g z3/ e/ |
[V:2]g/f/ e/d/ c/B/ |
[V:3]e/d/ c/B/ A/G/ |
[V:4]E, z2 |
[V:1]f/g/ a/b/ c'/d'/ |
[V:2]A/G/ F/E/ D/F/ |
[V:3]F/E/ D/C/ B,/A,/ |
[V:4]B,, B,, B,, |
[V:1]e' z2 |
[V:2]E z2 |
[V:3]G, z2 |
[V:4]E,, z E, |
[V:1]z3 |
[V:2]z3 |
[V:3]z3 |
[V:4]D,2 C, |
[V:1]z3 |
[V:2]z3 |
[V:3]z3 |
[V:4]B,,2 A,, |
[V:1]z3 |
[V:2]z3 |
[V:3]z3 |
[V:4]G,,2 F,, |
[V:1]z3 |
[V:2]z3 |
[V:3]z z E |
[V:4]E,,2 C- |
[V:1]z3 |
[V:2]z3 |
[V:3]D2 C |
[V:4]C B, A,- |
[V:1]z3 |
[V:2]z3 |
[V:3]B,2 A, |
[V:4]A, G, F,- |
[V:1]z3 |
[V:2]z3 |
[V:3]G,2 F, |
[V:4]F, E, B,, |
[V:1]z3 |
[V:2]z z e |
[V:3]E,2 c- |
[V:4]G,, E,, C,,/E,,/ |
[V:1]z3 |
[V:2]d2 c |
[V:3]c B A- |
[V:4]G,,2 A,,/C,/ |
[V:1]z3 |
[V:2]B2 A |
[V:3]A G F- |
[V:4]E,2 =B, |
[V:1]z3 |
[V:2]G2 F |
[V:3]F E D |
[V:4]C =A, B, |
[V:1]z z e |
[V:2]E2 _g- |
[V:3]E2 =A |
[V:4]G, E, z |
[V:1]d2 c |
[V:2]g f e- |
[V:3]B2 ^F |
[V:4]z3 |
[V:1]B2 A |
[V:2]e d c- |
[V:3]G2 D |
[V:4]z3 |
[V:1]G2 F |
[V:2]c B d- |
[V:3]E2 B, |
[V:4]z3 |
[V:1]E2 z |
[V:2]d e z |
[V:3]E,2 z |
[V:4]z z E,, |
[V:1]z3 |
[V:2]z3 |
[V:3]z3 |
[V:4]F,,2 G,, |
[V:1]z3 |
[V:2]z3 |
[V:3]z3 |
[V:4]A,,2 B,, |
[V:1]z3 |
[V:2]z3 |
[V:3]z3 |
[V:4]C,2 D, |
[V:1]z3 |
[V:2]z3 |
[V:3]z z E, |
[V:4]E,2 E,- |
[V:1]z3 |
[V:2]z3 |
[V:3]F,2 G, |
[V:4]E, D, _D,- |
[V:1]z3 |
[V:2]z3 |
[V:3]A,2 B, |
[V:4]D, C, B,,- |
[V:1]z3 |
[V:2]z3 |
[V:3]C2 D |
[V:4]B,, A,, F,, |
[V:1]z3 |
[V:2]z z E |
[V:3]E2 E- |
[V:4]G,, E,, G, |
[V:1]z3 |
[V:2]F2 G |
[V:3]E D _D- |
[V:4]A, B, E, |
[V:1]z3 |
[V:2]A2 B |
[V:3]D C B,- |
[V:4]A,,2 G, |
[V:1]z3 |
[V:2]c2 d |
[V:3]B, A, A,- |
[V:4]=E, F, B,, |
[V:1]z z E |
[V:2]e3- |
[V:3]A, G, G,/B,/ |
[V:4]E,,2 E,,/G,,/ |
[V:1]F2 G |
[V:2]e3- |
[V:3]C2 _D |
[V:4]A,,/G,,/ A,,/E,,/ B,,/E,,/ |
[V:1]A2 B |
[V:2]e3- |
[V:3]E2 _D |
[V:4]C,/B,,/ C,/E,,/ G,,/E,,/ |
[V:1]c2 d |
[V:2]e2 a |
[V:3]C2 F, |
[V:4]A,,/G,,/ A,,/E,,/ F,,/B,,/ |
[V:1]e z e |
[V:2]g z2 |
[V:3]G, z2 |
[V:4]E,, z2 |
[V:1]d2 c |
[V:2]z3 |
[V:3]z3 |
[V:4]z3 |
[V:1]B2 A |
[V:2]z3 |
[V:3]z3 |
[V:4]z3 |
[V:1]G2 F |
[V:2]z3 |
[V:3]z3 |
[V:4]z3 |
[V:1]E2 G/=A/ |
[V:2]z z e |
[V:3]z3 |
[V:4]z3 |
[V:1]B/=A/ B/F/ E/F/ |
[V:2]d2 c |
[V:3]z3 |
[V:4]z3 |
[V:1]G/^F/ G/D/ C/D/ |
[V:2]B2 A |
[V:3]z3 |
[V:4]z3 |
[V:1]E/D/ E/B,/ A,/B,/ |
[V:2]G2 F |
[V:3]z3 |
[V:4]z3 |
[V:1]G, z c- |
[V:2]E z G |
[V:3]z z E |
[V:4]z3 |
[V:1]c B A- |
[V:2]F2 E |
[V:3]D2 C |
[V:4]z3 |
[V:1]A G F- |
[V:2]D2 C |
[V:3]B,2 A, |
[V:4]z3 |
[V:1]F E D- |
[V:2]B,2 A, |
[V:3]G,2 F, |
[V:4]z3 |
[V:1]D E _g- |
[V:2]G,2 =A |
[V:3]E,2 C |
[V:4]z z E, |
[V:1]g f e- |
[V:2]B2 ^F |
[V:3]D2 =A |
[V:4]D,2 C, |
[V:1]e d c- |
[V:2]G2 D |
[V:3]B2 F, |
[V:4]B,,2 A,, |
[V:1]c B d- |
[V:2]E2 A- |
[V:3]G,2 B, |
[V:4]G,,2 F,, |
[V:1]d e E |
[V:2]A G z |
[V:3]B,2 z |
[V:4]E,,2 z |
[V:1]F2 G |
[V:2]z3 |
[V:3]z3 |
[V:4]z3 |
[V:1]A2 B |
[V:2]z3 |
[V:3]z3 |
[V:4]z3 |
[V:1]c2 d |
[V:2]z3 |
[V:3]z3 |
[V:4]z3 |
[V:1]e2 g |
[V:2]z z E |
[V:3]z3 |
[V:4]z3 |
[V:1]b/a/ g/f/ e/d/ |
[V:2]F2 G |
[V:3]z3 |
[V:4]z3 |
[V:1]c c' b |
[V:2]A2 B |
[V:3]z3 |
[V:4]z3 |
[V:1]a3 |
[V:2]c2 d |
[V:3]z3 |
[V:4]z3 |
[V:1]g2 e- |
[V:2]e2 G |
[V:3]z z E, |
[V:4]z3 |
[V:1]e d _d- |
[V:2]A2 B |
[V:3]F,2 G, |
[V:4]z3 |
[V:1]d c B- |
[V:2]E2 G- |
[V:3]A,2 B, |
[V:4]z3 |
[V:1]B =A _A- |
[V:2]G ^F =F- |
[V:3]C2 D |
[V:4]z3 |
[V:1]A G b |
[V:2]F E z |
[V:3]E2 G, |
[V:4]z z E,, |
[V:1]D2 b |
[V:2]B2 E- |
[V:3]A,2 B, |
[V:4]F,,2 G,, |
[V:1]C e/d/ c/B/ |
[V:2]E c/B/ A/G/ |
[V:3]C2 D |
[V:4]A,,2 B,, |
[V:1]B2 A |
[V:2]G2 F |
[V:3]E2 F |
[V:4]C,2 D, |
[V:1]G z2 |
[V:2]E z2 |
[V:3]B, z2 |
[V:4]E, z E, |
[V:1]z3 |
[V:2]z3 |
[V:3]z3 |
[V:4]D,2 C, |
[V:1]z3 |
[V:2]z3 |
[V:3]z3 |
[V:4]B,,2 A,, |
[V:1]z3 |
[V:2]z3 |
[V:3]z3 |
[V:4]G,,2 F,, |
[V:1]z3 |
[V:2]z3 |
[V:3]z z E |
[V:4]E,,/D,,/ E,,/F,,/ G,,/A,,/ |
[V:1]z3 |
[V:2]z3 |
[V:3]D2 C |
[V:4]B,,/C,/ D,/E,/ F,/G,/ |
[V:1]z3 |
[V:2]z3 |
[V:3]B,2 A, |
[V:4]A,/G,/ A,/F,/ D, |
[V:1]z3 |
[V:2]z3 |
[V:3]G,2 F, |
[V:4]E,/D,/ E,/B,,/ D,/B,,/ |
[V:1]z z B/c/ |
[V:2]z z e |
[V:3]E,2 G/A/ |
[V:4]E, E,, z |
[V:1]A/B/ A/B/ G/A/ |
[V:2]d2 c |
[V:3]F/G/ F/G/ E/F/ |
[V:4]z3 |
[V:1]F/G/ F/G/ E/F/ |
[V:2]B2 A |
[V:3]D/E/ D/E/ C/D/ |
[V:4]z3 |
[V:1]D/E/ D/E/ C/D/ |
[V:2]G2 F |
[V:3]B,/C/ B,/C/ A,/B,/ |
[V:4]z3 |
[V:1]B, z e |
[V:2]E2 G |
[V:3]G, z B |
[V:4]z z E, |
[V:1]d2 c |
[V:2]F2 E |
[V:3]A2 G |
[V:4]=B,2 C |
[V:1]B2 A |
[V:2]_D2 C |
[V:3]=E2 F |
[V:4]G,2 A, |
[V:1]G2 F |
[V:2]B,2 D |
[V:3]E2 A, |
[V:4]B,2 B,, |
[V:1]E2 z |
[V:2]E z2 |
[V:3]G, z2 |
[V:4]E, z E,, |
[V:1]z3 |
[V:2]z3 |
[V:3]z3 |
[V:4]F,,2 G,, |
[V:1]z3 |
[V:2]z3 |
[V:3]z3 |
[V:4]A,,2 B,, |
[V:1]z3 |
[V:2]z3 |
[V:3]z3 |
[V:4]C,2 D, |
[V:1]z3 |
[V:2]z3 |
[V:3]z z E, |
[V:4]E,2 G,,/E,/ |
[V:1]z3 |
[V:2]z3 |
[V:3]F,2 G, |
[V:4]A,,/E,/ D,/E,/ B,,/E,/ |
[V:1]z3 |
[V:2]z3 |
[V:3]A,2 B, |
[V:4]C,/E,/ D,/E,/ G,,/E,/ |
[V:1]z3 |
[V:2]z3 |
[V:3]C2 D |
[V:4]A,,/E,/ D,/E,/ A,,/B,,/ |
[V:1]z3 |
[V:2]z z E |
[V:3]E2 C |
[V:4]G,, E,, A, |
[V:1]z3 |
[V:2]F2 G |
[V:3]_D2 =E |
[V:4]F, _D, C, |
[V:1]z3 |
[V:2]A2 B |
[V:3]F2 G |
[V:4]A,, F,, E,, |
[V:1]z3 |
[V:2]c2 d |
[V:3]A2 G/F/ |
[V:4]C,, A,, B,, |
[V:1]z z e |
[V:2]e2 e |
[V:3]E2 G, |
[V:4]E,,3- |
[V:1]f2 g |
[V:2]d2 _d |
[V:3]A,2 B, |
[V:4]E,,3- |
[V:1]a2 b |
[V:2]c2 g |
[V:3]C2 _D |
[V:4]E,,3- |
[V:1]c'2 d' |
[V:2]a2 f |
[V:3]C2 _C |
[V:4]E,,3- |
[V:1]e' z2 |]
[V:2]g z2 |]
[V:3]B, z2 |]
[V:4]E,, z2 |]

